X: 31
T: JIG: Carraroe
C: C: Trad.; S: Various
C: Set Leaders: Tania, Anton, Sophie
Z: Anton Zille ed., Oleg Naumov arr.; JACKB at The Session
N: https://thesession.org/members/26966/sets/92422
R: Jig
M: 6/8
L: 1/8
Q: 3/8=116
K: Dmaj
|:"D"DED F2A|"D"dfe d2A|"G"B/c/dB Adf|"G"afd "Asus4"e2f|
"D"DED F2A|"D"dfe d2A|"G"B/c/dB AFA|"G"dAF "Asus4"E2D:||
|:"D"dfa afa|"G"bge edB|"D/F#"dfa afa|"A"bge efe|
"D"dfa afa|"G"bge edB|"Em"d2B "D/F#"AFA|1 "G"dAF "A"E2D:|2 "G"dAF "A"E3||

